X:1
T:Title
%%score ( 1 2 ) ( 3 4 )
L:1/8
Q:1/4=107
M:4/4
K:C
V:1 treble nm="Grand Piano, Soprano"
V:2 treble 
V:3 bass nm="Choir Pad, Merry Merry Christmas Time"
V:4 bass 
V:1
 [CEc]2 [CE]2 [CEB]2 [CE]2 | [CEA]2 [CE]2 [CE]4 | E-[EA]E-[EA] [EG]2 [Ec]2 | B8 | %4
w: By~Frederick~W.~Peace * * *||||
 [Fd]2 [FB]2 [Ec]2 [EA]2 | [FB]2 [DF]2 [DF]4 | .A2 .A2 z4 | [CE]8 | C-[CE]^FG [CA]2 [CD]2 | %9
w: |||||
 [B,DB]2 [B,DG]2 [B,D]2 D2 | DE^FG [CA]2 [CD]2 | [B,DB]2 [DGd]2 d2- [DGd]2 | F-[FA]Bc [Fd]2 [FG]2 | %13
w: ||||
 [Ec]2 [EGe]2 e2- [EGe]2 | dcBA [CE]2 [C^F]2 | [B,DG]8 | [CEc]2 [CE]2 [CEB]2 [CE]2 | %17
w: ||||
 [CEA]2 [CE]2 [CE]4 | GAGA [EG]2 [Ec]2 | B2- [B,FB-]2 [B,FB-]2 [B,FB]2 | G2 ^G2 A2 _B2 | B2 c2 d4 | %22
w: |||||
 FAGA [FG]2 [Fd]2 | c2- [Fc-]2 [E-c]4 | E4 z4 |] %25
w: |||
V:2
 x8 | x8 | .G2 .G2 z4 | F2 F2 F2 F2 | x8 | x8 | F-[FB]F-[FB] [FA]2 [DFB]2 | x8 | .D2 C2 z4 | x8 | %10
 C2 C2 z4 | z4 [DG]2 z2 | .G2 F2 z4 | z4 [EG]2 z2 | [DG]2 D2 z4 | x8 | x8 | x8 | E2 E2 z4 | %19
 [B,F]2 z2 z4 | x8 | x8 | z2 F2 z4 | E2 z2 z4 | x8 |] %25
V:3
 [C,G,]2 [G,,G,]2 [C,G,]2 [G,,G,]2 | [C,G,]2 [G,,G,]2 [C,G,]2 [G,,G,]2 | %2
 [C,G,]2 [G,,G,]2 [C,G,]2 [G,,G,]2 | [D,G,]2 [G,,G,]2 [D,G,]2 [G,,G,]2 | %4
 [G,B,]2 [G,D]2 [G,C]2 [G,C]2 | [G,D]2 [G,B,]2 [G,B,]2 [D,B,]2 | .C2 .C2 z4 | G,4 z4 | %8
 D,-[D,G,]A,G, [D,^F,]2 [D,F,]2 | [G,,G,]2 [G,,G,]2 [G,,G,]2 [B,,G,]2 | ^F,G,A,G, [D,F,]2 [D,F,]2 | %11
 [G,,G,]2 [G,B,]2 [G,B,]2 [G,B,]2 | B,CDC [G,B,]2 [G,B,]2 | [C,C]2 [C,C]2 [^C,_B,]2 [C,B,]2 | %14
 B,A,G,^F, [D,G,]2 [D,A,]2 | [G,,G,]A,,B,,C, D,E,F,G, | [C,G,]2 [G,,G,]2 [C,G,]2 [G,,G,]2 | %17
 [C,G,]2 [G,,G,]2 [C,G,]2 [G,,G,]2 | [C,G,]2 [G,,G,]2 [C,G,]2 [G,,G,]2 | %19
 [D,G,]2 [G,,G,]2 [D,G,]2 [G,,G,]2 | G,,G,^G,,^G, A,,A,_B,,_B, | B,,B,C,C D,DC,[K:treble]D | %22
 B,CB,C[K:bass] [G,B,]2 [G,B,]2 | C2 A,2 G,4- | G,4 z4 |] %25
V:4
 x8 | x8 | x8 | x8 | x8 | x8 | G,-[G,D]G,-[G,D] [G,C]2 G,2 | C,2 B,,2 A,,2 G,,2 | .^F,2 D,2 z4 | %9
 x8 | D,2 D,2 z4 | x8 | G,2 G,2 z4 | x8 | D,2 D,2 z4 | x8 | x8 | x8 | x8 | x8 | x8 | %21
 x7[K:treble] x | G,2 G,2[K:bass] z4 | C,8- | C,4 z4 |] %25

